X: 1019
T: The Lark in the Morning
N:"1st Setting"
N:"Collected by Carberry"
B:O'Neill's 1019
Z:Transcribed by Dan G. Petersen, dangp@post6.tele.dk
M:6/8
L:1/8
K:Em
B,|[B,2E2]c BGE|D2d AFD|[B,2E2]c BA|GFE e2(e/f/|
g)fe dcB|(A/B/A).G FE^D|EFG ABc|BGF E2:|
B|eBe (g<b).e|dAd (f<a).f|eBe (g<b).e|(f<a).f (g<b).e|
(f<a).f gfe|(d({e/d/}c)d) AF^D|EFG ABc|BGF E2:|


